static/assets/images/products/kubevault/features/vaultserverversions.svg

<svg width="32" height="32" viewBox="0 0 32 32" fill="none" xmlns="http://www.w3.org/2000/svg">
<g clip-path="url(#clip0_4395_8844)">
<path d="M15.9128 31.8256L0 0H31.8256L24.5967 14.3897H24.1875C23.4373 14.3897 23.2782 14.5261 23.21 16.0265C23.21 16.663 21.505 17.595 20.6412 17.595C20.5364 17.6185 20.4277 17.6185 20.3229 17.595L20.1411 17.4586C19.4364 16.9585 19.0954 16.7085 18.7771 16.7085C18.4589 16.7085 18.1179 17.004 17.4586 17.686L17.0494 18.0497C16.9607 18.1213 16.8884 18.2111 16.8374 18.3131C16.7864 18.415 16.758 18.5268 16.7539 18.6407C16.7707 18.8267 16.8607 18.9984 17.004 19.1181C17.2215 19.2751 17.4044 19.4752 17.5413 19.7059C17.6782 19.9367 17.7661 20.1931 17.7996 20.4593C17.7866 20.7775 17.7011 21.0885 17.5496 21.3686L17.1176 22.2552C17.0699 22.4054 16.9926 22.5445 16.8903 22.6644C16.7494 22.7806 16.5728 22.8448 16.3902 22.8463H15.7082H15.5491C15.2308 22.8463 14.8671 22.8462 14.7307 23.1872C14.6979 23.3676 14.6979 23.5524 14.7307 23.7328V25.0058C14.7307 26.1652 14.7307 26.1879 15.9128 26.3016H16.2765C16.7994 26.3016 17.4586 27.2564 17.7769 28.0747L15.9128 31.8256ZM14.9808 14.6853V16.5266H16.8448V14.6853H14.9808ZM12.2301 11.9119V13.7987H14.0715V11.9119H12.2301ZM17.7542 11.9119V13.7532H19.6182V11.9119H17.7542ZM14.9808 11.9119V13.7759H16.8676V11.9119H14.9808ZM12.2301 9.09303V10.9571H14.0715V9.09303H12.2301ZM14.9808 9.09303V10.9344H16.8676V9.09303H14.9808ZM17.7542 9.09303V10.9344H19.6182V9.09303H17.7542ZM12.2301 6.38786V8.25193H14.0715V6.38786H12.2301ZM17.7542 6.38786V8.2292H19.5955V6.38786H17.7542ZM14.9808 6.38786V8.2292H16.8676V6.38786H14.9808Z" fill="#326CE5"/>
<path d="M31.0073 23.4374C30.667 23.22 30.3907 22.9159 30.2069 22.5563C30.0231 22.1967 29.9384 21.7947 29.9616 21.3915V21.2778C30.7118 20.2776 30.7118 20.2776 29.8479 19.391C28.9841 18.5045 29.1432 18.7545 28.5294 19.391C28.4556 19.4905 28.3626 19.5743 28.2559 19.6375C28.1493 19.7006 28.0311 19.7419 27.9084 19.7588C27.7856 19.7758 27.6607 19.768 27.5409 19.7361C27.4212 19.7042 27.309 19.6487 27.2109 19.5729C27.1062 19.4881 26.9805 19.4332 26.8472 19.4138H26.7108C26.5944 19.387 26.4843 19.3375 26.387 19.2681C26.2897 19.1987 26.207 19.1109 26.1436 19.0095C26.0803 18.9082 26.0376 18.7954 26.0179 18.6775C25.9982 18.5596 26.0019 18.439 26.0288 18.3226V18.3226C26.0288 18.3226 26.0288 18.0953 26.0288 18.0043C26.0067 17.8873 25.9395 17.7836 25.8417 17.7156C25.744 17.6476 25.6234 17.6207 25.506 17.6406H25.0059C23.8692 17.6406 23.7101 17.3906 23.6419 18.7772C23.6419 19.3001 22.0734 20.073 21.6187 19.8457H21.4823C20.4594 18.8 20.4594 18.8 19.6637 19.6865L19.3909 19.9593C19.2919 20.0285 19.2227 20.1326 19.1974 20.2507C19.1721 20.3689 19.1925 20.4922 19.2545 20.5959V20.5959C19.4235 20.7181 19.561 20.8787 19.6559 21.0644C19.7507 21.2502 19.8001 21.4557 19.8001 21.6643C19.7959 21.8815 19.7331 22.0936 19.6183 22.2781L19.3227 22.9146C19.2927 23.0238 19.2383 23.1249 19.1636 23.2101C19.0638 23.2812 18.9451 23.3207 18.8226 23.3238H18.3452C18.1179 23.3238 17.7542 23.3238 17.6632 23.5738C17.6398 23.7016 17.6398 23.8325 17.6632 23.9603V25.006C17.6632 25.8243 17.6632 25.8243 18.4816 25.9153H18.7544C19.3227 25.9153 20.1184 27.4384 19.891 27.9385V28.0749C19.1863 29.0978 19.1863 29.0978 20.0729 30.0071L20.3002 30.2345C20.5276 30.4618 20.8231 30.5527 21.0504 30.2345V30.0981C21.1713 29.9729 21.3161 29.8734 21.4762 29.8055C21.6363 29.7375 21.8085 29.7025 21.9824 29.7025C22.1564 29.7025 22.3286 29.7375 22.4887 29.8055C22.6488 29.8734 22.7936 29.9729 22.9145 30.0981L23.21 30.2117C23.3527 30.2342 23.4814 30.3102 23.5701 30.4242C23.6588 30.5382 23.7007 30.6817 23.6874 30.8255C23.6874 31.0301 23.6874 31.212 23.6874 31.4166C23.6646 31.475 23.6646 31.54 23.6874 31.5984C23.6979 31.6641 23.7221 31.7268 23.7582 31.7825C23.7944 31.8383 23.8418 31.8859 23.8975 31.9223C23.9531 31.9587 24.0157 31.983 24.0813 31.9938C24.1469 32.0046 24.2141 32.0015 24.2784 31.9849H25.3696C25.8015 31.9849 26.0288 31.803 26.0061 31.3938C26.0061 31.3938 26.0061 31.3938 26.0061 31.2574C25.9808 30.9473 26.0788 30.6398 26.2788 30.4015C26.4789 30.1631 26.7648 30.0133 27.0745 29.9844V29.9844C27.1823 29.9626 27.2835 29.9159 27.3701 29.848V29.848C27.5337 29.7298 27.737 29.6802 27.9367 29.7099C28.1364 29.7397 28.3165 29.8463 28.4385 30.0071V30.0071C28.6286 30.184 28.834 30.3438 29.0523 30.4845C29.7284 30.217 30.2798 29.7061 30.5981 29.0524C30.5804 28.9074 30.5167 28.7719 30.4162 28.6659C30.1415 28.477 29.9518 28.1877 29.888 27.8604C29.8243 27.5331 29.8915 27.1938 30.0752 26.9155L30.1889 26.7564C30.1975 26.6885 30.1975 26.6197 30.1889 26.5518C30.2171 26.3668 30.3155 26.1998 30.4637 26.0854C30.6119 25.9711 30.7984 25.9183 30.9845 25.938C31.9848 25.938 31.9848 25.938 31.9848 24.8696C31.9848 23.8011 32.1666 23.6193 31.0073 23.4374ZM28.0293 24.7104C28.0202 25.3173 27.8314 25.9079 27.4868 26.4075C27.1421 26.907 26.657 27.2932 26.0929 27.5171C25.5287 27.741 24.9109 27.7926 24.3174 27.6654C23.724 27.5381 23.1816 27.2378 22.7588 26.8023C22.336 26.3668 22.0519 25.8158 21.9423 25.2188C21.8327 24.6218 21.9026 24.0058 22.1431 23.4485C22.3836 22.8913 22.784 22.4178 23.2935 22.0881C23.8031 21.7584 24.399 21.5872 25.0059 21.5961C25.8098 21.6081 26.5764 21.9374 27.1385 22.5123C27.7006 23.0872 28.0127 23.861 28.0066 24.665L28.0293 24.7104Z" fill="#326CE5"/>
</g>
<defs>
<clipPath id="clip0_4395_8844">
<rect width="32" height="32" fill="white"/>
</clipPath>
</defs>
</svg>

<svg xmlns="http://www.w3.org/2000/svg" width="32" height="32" fill="none" xmlns:v="https://vecta.io/nano"><g clip-path="url(#A)" fill="#326ce5"><path d="M15.913 31.826L0 0h31.826l-7.229 14.39h-.409c-.75 0-.909.136-.977 1.637 0 .637-1.705 1.569-2.569 1.569a.71.71 0 0 1-.318 0l-.182-.136c-.705-.5-1.046-.75-1.364-.75s-.659.296-1.319.977l-.409.364c-.089.072-.161.161-.212.263s-.079.214-.083.328c.017.186.107.358.25.477a1.96 1.96 0 0 1 .537.588c.137.231.225.487.258.753a2.09 2.09 0 0 1-.25.909l-.432.887a1.18 1.18 0 0 1-.227.409.8.8 0 0 1-.5.182h-.682-.159c-.318 0-.682 0-.818.341a1.52 1.52 0 0 0 0 .546v1.273c0 1.159 0 1.182 1.182 1.296h.364c.523 0 1.182.955 1.5 1.773l-1.864 3.751zm-.932-17.14v1.841h1.864v-1.841h-1.864zm-2.751-2.773V13.8h1.841v-1.887H12.23zm5.524 0v1.841h1.864v-1.841h-1.864zm-2.773 0v1.864h1.887v-1.864h-1.887zm-2.751-2.82v1.864h1.841V9.093H12.23zm2.751 0v1.841h1.887V9.093h-1.887zm2.773 0v1.841h1.864V9.093h-1.864zM12.23 6.388v1.864h1.841V6.388H12.23zm5.524 0v1.841h1.841V6.388h-1.841zm-2.773 0v1.841h1.887V6.388h-1.887zm16.026 17.049c-.34-.217-.617-.521-.8-.881a2.27 2.27 0 0 1-.245-1.165v-.114c.75-1 .75-1-.114-1.887s-.705-.636-1.319 0a.93.93 0 0 1-.988.345c-.12-.032-.232-.087-.33-.163a.75.75 0 0 0-.364-.159h-.136a.91.91 0 0 1-.682-1.091h0v-.318c-.022-.117-.089-.221-.187-.289s-.218-.095-.336-.075h-.5c-1.137 0-1.296-.25-1.364 1.137 0 .523-1.569 1.296-2.023 1.069h-.136c-1.023-1.046-1.023-1.046-1.819-.159l-.273.273a.48.48 0 0 0-.136.637h0a1.32 1.32 0 0 1 .546 1.068c-.004.217-.067.429-.182.614l-.296.637a.75.75 0 0 1-.159.296c-.1.071-.218.111-.341.114h-.477c-.227 0-.591 0-.682.25-.023.128-.023.259 0 .387v1.046c0 .818 0 .818.818.909h.273c.568 0 1.364 1.523 1.137 2.023v.136c-.705 1.023-.705 1.023.182 1.932l.227.227c.227.227.523.318.75 0V30.1c.121-.125.266-.225.426-.293s.332-.103.506-.103.346.035.506.103a1.29 1.29 0 0 1 .426.293l.296.114a.57.57 0 0 1 .477.614v.591a.25.25 0 0 0 0 .182c.011.066.035.128.071.184a.49.49 0 0 0 .139.14c.055.037.118.061.184.072a.48.48 0 0 0 .197-.009h1.091c.432 0 .659-.182.637-.591v-.136a1.18 1.18 0 0 1 1.068-1.273h0a.72.72 0 0 0 .296-.136h0c.164-.118.367-.168.567-.138a.77.77 0 0 1 .502.297h0a4.4 4.4 0 0 0 .614.477 2.91 2.91 0 0 0 1.546-1.432.68.68 0 0 0-.182-.386 1.27 1.27 0 0 1-.341-1.751l.114-.159a.78.78 0 0 0 0-.205.73.73 0 0 1 .275-.466c.148-.114.335-.167.521-.147 1 0 1 0 1-1.068s.182-1.25-.977-1.432zm-2.978 1.273a3.07 3.07 0 0 1-5.27 2.092 3.07 3.07 0 0 1 2.247-5.206 3.05 3.05 0 0 1 2.133.916c.563.575.874 1.349.868 2.153l.023.045z"/></g><defs><clipPath id="A"><path fill="#fff" d="M0 0h32v32H0z"/></clipPath></defs></svg>
